assets/img/braze_icons/perspective-01.svg

<svg fill="none" height="24" viewBox="0 0 24 24" width="24" xmlns="http://www.w3.org/2000/svg"><path clip-rule="evenodd" d="m4.56811 2c-.25238-.00003-.49818-.00006-.70633.01695-.2286.01868-.49833.06274-.76976.20104-.37632.19175-.68228.49771-.87403.87403-.1383.27143-.18236.54116-.20104.76976-.01701.20815-.01698.45394-.01695.70631v.86381c-.00003.25238-.00006.49818.01695.70634.01868.22859.06274.49832.20104.76975.19175.37632.49771.68228.87403.87403.27143.1383.54116.18236.76976.20104.04445.00363.09063.00649.13822.00873v8.01641c-.04759.0023-.09377.0051-.13822.0088-.2286.0186-.49833.0627-.76976.201-.37632.1917-.68228.4977-.87403.874-.1383.2714-.18236.5412-.20104.7698-.01701.2081-.01698.4539-.01695.7063v.8638c-.00003.2524-.00006.4982.01695.7063.01868.2286.06274.4984.20104.7698.19175.3763.49771.6823.87403.874.27143.1383.54116.1824.76976.2011.20815.017.45394.0169.70633.0169h.86379c.25239 0 .49818.0001.70634-.0169.22859-.0187.49832-.0628.76975-.2011.37632-.1917.68228-.4977.87403-.874.1383-.2714.18236-.5412.20104-.7698.01362-.1667.01631-.3575.01683-.5566l8.05621-1.1509c.0301.1529.0791.3148.1619.4773.1917.3763.4977.6823.874.874.2714.1383.5412.1824.7698.2011.2081.017.4539.0169.7063.0169h.8638c.2524 0 .4982.0001.7063-.0169.2286-.0187.4984-.0628.7698-.2011.3763-.1917.6823-.4977.874-.874.1383-.2714.1824-.5412.2011-.7698.017-.2081.0169-.4539.0169-.7063v-.8638c0-.2524.0001-.4982-.0169-.7063-.0187-.2286-.0628-.4984-.2011-.7698-.1917-.3763-.4977-.6823-.874-.874-.2714-.1383-.5412-.1824-.7698-.201-.0444-.0037-.0906-.0065-.1382-.0088v-4.01641c.0476-.00224.0938-.0051.1382-.00873.2286-.01868.4984-.06274.7698-.20104.3763-.19175.6823-.49771.874-.87403.1383-.27143.1824-.54116.2011-.76975.017-.20816.0169-.45395.0169-.70634v-.86379c0-.25239.0001-.49818-.0169-.70633-.0187-.2286-.0628-.49833-.2011-.76976-.1917-.37632-.4977-.68228-.874-.87403-.2714-.1383-.5412-.18236-.7698-.20104-.2081-.01701-.4539-.01698-.7063-.01695h-.8638c-.2524-.00003-.4982-.00006-.7063.01695-.2286.01868-.4984.06274-.7698.20104-.3763.19175-.6823.49771-.874.87403-.0828.16255-.1319.32449-.1619.47735l-8.05621-1.15089c-.00051-.19908-.00321-.38997-.01683-.5567-.01868-.2286-.06274-.49833-.20104-.76976-.19175-.37632-.49771-.68228-.87403-.87403-.27143-.1383-.54116-.18236-.76975-.20104-.20816-.01701-.45395-.01698-.70632-.01695zm13.43189 12.0082v-4.01641c-.0476-.00224-.0938-.0051-.1382-.00873-.2286-.01868-.4984-.06274-.7698-.20104-.3763-.19175-.6823-.49771-.874-.87403-.1383-.27143-.1824-.54116-.201-.76975-.0137-.16671-.0164-.35754-.0169-.55657l-8.05624-1.15089c-.03002.15282-.07905.31471-.16184.47721-.19175.37632-.49771.68228-.87403.87403-.27143.1383-.54116.18236-.76975.20104-.04447.00363-.09065.00649-.13824.00873v8.01641c.04759.0023.09377.0051.13824.0088.22859.0186.49832.0627.76975.201.37632.1917.68228.4977.87403.874.08281.1626.13184.3245.16186.4773l8.05622-1.1509c.0005-.199.0032-.3899.0169-.5566.0186-.2286.0627-.4984.201-.7698.1917-.3763.4977-.6823.874-.874.2714-.1383.5412-.1824.7698-.201.0444-.0037.0906-.0065.1382-.0088z" fill="#801ed7" fill-rule="evenodd"/></svg>

<svg width="24" height="24" viewBox="0 0 24 24" fill="none" xmlns="http://www.w3.org/2000/svg">
<path fill-rule="evenodd" clip-rule="evenodd" d="M4.56811 2C4.31573 1.99997 4.06993 1.99994 3.86178 2.01695C3.63318 2.03563 3.36345 2.07969 3.09202 2.21799C2.7157 2.40974 2.40974 2.7157 2.21799 3.09202C2.07969 3.36345 2.03563 3.63318 2.01695 3.86178C1.99994 4.06993 1.99997 4.31572 2 4.56809L2 5.4319C1.99997 5.68428 1.99994 5.93008 2.01695 6.13824C2.03563 6.36683 2.07969 6.63656 2.21799 6.90799C2.40974 7.28431 2.7157 7.59027 3.09202 7.78202C3.36345 7.92032 3.63318 7.96438 3.86178 7.98306C3.90623 7.98669 3.95241 7.98955 4 7.99179V16.0082C3.95241 16.0105 3.90623 16.0133 3.86178 16.017C3.63318 16.0356 3.36345 16.0797 3.09202 16.218C2.7157 16.4097 2.40974 16.7157 2.21799 17.092C2.07969 17.3634 2.03563 17.6332 2.01695 17.8618C1.99994 18.0699 1.99997 18.3157 2 18.5681V19.4319C1.99997 19.6843 1.99994 19.9301 2.01695 20.1382C2.03563 20.3668 2.07969 20.6366 2.21799 20.908C2.40974 21.2843 2.7157 21.5903 3.09202 21.782C3.36345 21.9203 3.63318 21.9644 3.86178 21.9831C4.06993 22.0001 4.31572 22 4.56811 22H5.4319C5.68429 22 5.93008 22.0001 6.13824 21.9831C6.36683 21.9644 6.63656 21.9203 6.90799 21.782C7.28431 21.5903 7.59027 21.2843 7.78202 20.908C7.92032 20.6366 7.96438 20.3668 7.98306 20.1382C7.99668 19.9715 7.99937 19.7807 7.99989 19.5816L16.0561 18.4307C16.0862 18.5836 16.1352 18.7455 16.218 18.908C16.4097 19.2843 16.7157 19.5903 17.092 19.782C17.3634 19.9203 17.6332 19.9644 17.8618 19.9831C18.0699 20.0001 18.3157 20 18.5681 20H19.4319C19.6843 20 19.9301 20.0001 20.1382 19.9831C20.3668 19.9644 20.6366 19.9203 20.908 19.782C21.2843 19.5903 21.5903 19.2843 21.782 18.908C21.9203 18.6366 21.9644 18.3668 21.9831 18.1382C22.0001 17.9301 22 17.6843 22 17.4319V16.5681C22 16.3157 22.0001 16.0699 21.9831 15.8618C21.9644 15.6332 21.9203 15.3634 21.782 15.092C21.5903 14.7157 21.2843 14.4097 20.908 14.218C20.6366 14.0797 20.3668 14.0356 20.1382 14.017C20.0938 14.0133 20.0476 14.0105 20 14.0082V9.99179C20.0476 9.98955 20.0938 9.98669 20.1382 9.98306C20.3668 9.96438 20.6366 9.92032 20.908 9.78202C21.2843 9.59027 21.5903 9.28431 21.782 8.90799C21.9203 8.63656 21.9644 8.36683 21.9831 8.13824C22.0001 7.93008 22 7.68429 22 7.4319V6.56811C22 6.31572 22.0001 6.06993 21.9831 5.86178C21.9644 5.63318 21.9203 5.36345 21.782 5.09202C21.5903 4.7157 21.2843 4.40974 20.908 4.21799C20.6366 4.07969 20.3668 4.03563 20.1382 4.01695C19.9301 3.99994 19.6843 3.99997 19.4319 4H18.5681C18.3157 3.99997 18.0699 3.99994 17.8618 4.01695C17.6332 4.03563 17.3634 4.07969 17.092 4.21799C16.7157 4.40974 16.4097 4.7157 16.218 5.09202C16.1352 5.25457 16.0861 5.41651 16.0561 5.56937L7.99989 4.41848C7.99938 4.2194 7.99668 4.02851 7.98306 3.86178C7.96438 3.63318 7.92032 3.36345 7.78202 3.09202C7.59027 2.7157 7.28431 2.40974 6.90799 2.21799C6.63656 2.07969 6.36683 2.03563 6.13824 2.01695C5.93008 1.99994 5.68429 1.99997 5.43192 2L4.56811 2ZM18 14.0082V9.99179C17.9524 9.98955 17.9062 9.98669 17.8618 9.98306C17.6332 9.96438 17.3634 9.92032 17.092 9.78202C16.7157 9.59027 16.4097 9.28431 16.218 8.90799C16.0797 8.63656 16.0356 8.36683 16.017 8.13824C16.0033 7.97153 16.0006 7.7807 16.0001 7.58167L7.94386 6.43078C7.91384 6.5836 7.86481 6.74549 7.78202 6.90799C7.59027 7.28431 7.28431 7.59027 6.90799 7.78202C6.63656 7.92032 6.36683 7.96438 6.13824 7.98306C6.09377 7.98669 6.04759 7.98955 6 7.99179V16.0082C6.04759 16.0105 6.09377 16.0133 6.13824 16.017C6.36683 16.0356 6.63656 16.0797 6.90799 16.218C7.28431 16.4097 7.59027 16.7157 7.78202 17.092C7.86483 17.2546 7.91386 17.4165 7.94388 17.5693L16.0001 16.4184C16.0006 16.2194 16.0033 16.0285 16.017 15.8618C16.0356 15.6332 16.0797 15.3634 16.218 15.092C16.4097 14.7157 16.7157 14.4097 17.092 14.218C17.3634 14.0797 17.6332 14.0356 17.8618 14.017C17.9062 14.0133 17.9524 14.0105 18 14.0082Z" fill="#801ED7"/>
</svg>
